X: 127
T:Greenwoodside
G:pipe march
M:2/4
L:1/16
Q:1/4=86
K:BMin
% dorian/minor hexatonic, B-final G-gap hexatonic pitch set
   e2|B>BB>c B2A2|B>cd>e f4|e3f  e>fe>d|c2A2 A2
   f2|B2B>c  B2A2|B>cd>e f4|e2a2 f2ef  |d2B2 B2:|
   de|f3d    B2f2|B>BB>c f4|e3f  e>fe>d|c2A2 A2
[1 de|f3d    B2f2|B>BB>d f4|e2a2 f2ef  |d2B2 B2:|
[2 e2|B2B>c  B2A2|B>cd>e f4|e2a2 f2ef  |d2B2 B2|]

It can also be the E-final mode in the C-gap hexatonic pitch set, but
this is uncommon.

There are many tunes nearly in this mode, where the sixth is only used
as a passing note in scale patterns, like the inconspicuous c's in this:

